icons/evolvere-flat-vivid-sunken-dark-fallback/places/64/folder-html.svg

<?xml version="1.0" encoding="UTF-8" standalone="no"?>
<!-- Created with Inkscape (http://www.inkscape.org/) -->

<svg
   xmlns:dc="http://purl.org/dc/elements/1.1/"
   xmlns:cc="http://creativecommons.org/ns#"
   xmlns:rdf="http://www.w3.org/1999/02/22-rdf-syntax-ns#"
   xmlns:svg="http://www.w3.org/2000/svg"
   xmlns="http://www.w3.org/2000/svg"
   xmlns:sodipodi="http://sodipodi.sourceforge.net/DTD/sodipodi-0.dtd"
   xmlns:inkscape="http://www.inkscape.org/namespaces/inkscape"
   id="svg13094"
   height="64"
   width="64"
   version="1.1"
   inkscape:version="0.48.4 r9939"
   sodipodi:docname="folder-html.svg"
   inkscape:export-filename="folder.png"
   inkscape:export-xdpi="90"
   inkscape:export-ydpi="90">
  <sodipodi:namedview
     pagecolor="#ffffff"
     bordercolor="#666666"
     borderopacity="1"
     objecttolerance="10"
     gridtolerance="10"
     guidetolerance="10"
     inkscape:pageopacity="0"
     inkscape:pageshadow="2"
     inkscape:window-width="1920"
     inkscape:window-height="1022"
     id="namedview46"
     showgrid="true"
     inkscape:snap-bbox="true"
     inkscape:bbox-paths="true"
     inkscape:bbox-nodes="true"
     inkscape:snap-bbox-edge-midpoints="true"
     inkscape:snap-bbox-midpoints="true"
     inkscape:snap-nodes="true"
     inkscape:object-paths="true"
     inkscape:snap-intersection-paths="true"
     inkscape:object-nodes="true"
     inkscape:snap-smooth-nodes="true"
     inkscape:snap-midpoints="true"
     inkscape:snap-object-midpoints="true"
     inkscape:snap-center="true"
     fit-margin-top="0"
     fit-margin-left="0"
     fit-margin-right="0"
     fit-margin-bottom="0"
     inkscape:zoom="11.313708"
     inkscape:cx="36.429262"
     inkscape:cy="32.305481"
     inkscape:window-x="-5"
     inkscape:window-y="23"
     inkscape:window-maximized="1"
     inkscape:current-layer="svg13094"
     showguides="true"
     inkscape:guide-bbox="true"
     inkscape:snap-page="true"
     inkscape:snap-global="true">
    <inkscape:grid
       type="xygrid"
       id="grid3023"
       empspacing="5"
       visible="true"
       enabled="true"
       snapvisiblegridlinesonly="true"
       originx="-80px"
       originy="-75px" />
  </sodipodi:namedview>
  <defs
     id="defs11" />
  <metadata
     id="metadata13099">
    <rdf:RDF>
      <cc:Work
         rdf:about="">
        <dc:format>image/svg+xml</dc:format>
        <dc:type
           rdf:resource="http://purl.org/dc/dcmitype/StillImage" />
        <dc:title />
      </cc:Work>
    </rdf:RDF>
  </metadata>
  <path
     style="color:#000000;fill:#da8c1f;fill-opacity:1;fill-rule:nonzero;stroke:none;marker:none;visibility:visible;display:inline;overflow:visible;enable-background:accumulate"
     d="m 3,6 -10e-8,58.000001 L 60,64 64,60 64,1 63,0 37,0 32,4.9999999 4,5 z"
     id="path3833-98"
     inkscape:connector-curvature="0"
     sodipodi:nodetypes="cccccccccc" />
  <path
     sodipodi:nodetypes="cccccccc"
     id="path3802-94"
     d="m 58,13 0,51 2,0 4,-4 0,-59 -1,-1 0,18 z"
     inkscape:connector-curvature="0"
     style="fill:#8c3d00;fill-opacity:0.33273704;stroke:none;stroke-width:1;marker:none" />
  <path
     sodipodi:nodetypes="ccccc"
     d="m 7,13 51,0 0,31 -51,0 z"
     id="path3920-52"
     inkscape:connector-curvature="0"
     style="fill:#e2e2e2;fill-opacity:1;fill-rule:nonzero" />
  <path
     style="color:#000000;fill:#3e4959;fill-opacity:0.22968199;fill-rule:nonzero;stroke-width:1;stroke-linecap:butt;stroke-linejoin:miter;stroke-miterlimit:4;stroke-opacity:1;stroke-dasharray:none;stroke-dashoffset:0;marker:none;visibility:visible;display:inline;overflow:visible;enable-background:accumulate"
     d="m 30,13 4,4 2,0 -4,-4 z"
     id="path3982-40"
     inkscape:connector-curvature="0"
     sodipodi:nodetypes="ccccc" />
  <path
     id="path3916-08"
     d="m 0,13 0,50 1,1 59,0 1,-1 0,-45 -1,-1 -26,1e-6 -5,-5 L 1,12 z"
     inkscape:connector-curvature="0"
     style="color:#000000;fill:#f4ae3f;fill-opacity:1;fill-rule:nonzero;stroke-width:1;stroke-linecap:butt;stroke-linejoin:miter;stroke-miterlimit:4;stroke-opacity:1;stroke-dasharray:none;stroke-dashoffset:0;marker:none;visibility:visible;display:inline;overflow:visible;enable-background:accumulate"
     sodipodi:nodetypes="ccccccccccc"
     inkscape:export-xdpi="90"
     inkscape:export-ydpi="90" />
  <path
     style="font-size:medium;font-style:normal;font-variant:normal;font-weight:normal;font-stretch:normal;text-indent:0;text-align:start;text-decoration:none;line-height:normal;letter-spacing:normal;word-spacing:normal;text-transform:none;direction:ltr;block-progression:tb;writing-mode:lr-tb;text-anchor:start;baseline-shift:baseline;color:#000000;fill:#b54f00;fill-opacity:0.38628157000000002;stroke:none;stroke-width:1;marker:none;visibility:visible;display:inline;overflow:visible;enable-background:accumulate;font-family:Sans;-inkscape-font-specification:Sans;fill-rule:nonzero"
     d="M 11.1875 30.40625 L 5.1875 38.40625 L 4.75 39 L 5.1875 39.59375 L 11.1875 47.59375 L 12.8125 46.40625 L 7.25 39 L 12.8125 31.59375 L 11.1875 30.40625 z M 26.8125 30.40625 L 25.1875 31.59375 L 30.75 39 L 25.1875 46.40625 L 26.8125 47.59375 L 32.8125 39.59375 L 33.25 39 L 32.8125 38.40625 L 26.8125 30.40625 z M 19 33 C 15.698136 33 13 35.698136 13 39 C 13 42.301864 15.698136 45 19 45 C 22.301864 45 25 42.301864 25 39 C 25 35.698136 22.301864 33 19 33 z M 19 35 C 21.220984 35 23 36.779016 23 39 C 23 41.220984 21.220984 43 19 43 C 16.779016 43 15 41.220984 15 39 C 15 36.779016 16.779016 35 19 35 z "
     id="path2988" />
</svg>

<svg xmlns="http://www.w3.org/2000/svg" viewBox="0 0 64 64"><path d="m3 6v58h57l4-4v-59l-1-1h-26l-5 5h-28z" fill="#da8c1f" color="#000"/><path d="m58 13v51h2l4-4v-59l-1-1v18z" fill="#8c3d00" fill-opacity=".333"/><path d="m7 13h51v31h-51z" fill="#e2e2e2"/><g color="#000"><path d="m30 13l4 4h2l-4-4z" fill="#3e4959" fill-opacity=".23"/><path d="m0 13v50l1 1h59l1-1v-45l-1-1h-26l-5-5h-28z" fill="#f4ae3f"/><path d="m11.188 30.406l-6 8-.438.594.438.594 6 8 1.625-1.188-5.563-7.406 5.563-7.406-1.625-1.188m15.625 0l-1.625 1.188 5.563 7.406-5.563 7.406 1.625 1.188 6-8 .438-.594-.438-.594-6-8m-7.813 2.594c-3.302 0-6 2.698-6 6 0 3.302 2.698 6 6 6 3.302 0 6-2.698 6-6 0-3.302-2.698-6-6-6m0 2c2.221 0 4 1.779 4 4 0 2.221-1.779 4-4 4-2.221 0-4-1.779-4-4 0-2.221 1.779-4 4-4" fill-opacity=".386" fill="#b54f00"/></g></svg>
